X:14086
T:Reel
R:Reel
S:(Mary Custy)
H:
N:
D:Galway Arts Festival Concert
Z:Adrian Scahill
M:4/4
L:1/8
K:A
A2cA eAcA|E2ec d2cB|A2ce f3g|a2ed cdBc:||\
agae agae|f2ed cefg|aege f2ec|f2ec Befg|\
agae agae|f2ed cefg|aAce f2ec|f2ed cdBc||


